!!!COM: Joplin, Scott
!!!CDT: 1868/11/24/-1917/04/01/
!!!OTL: Solace, A Mexican Serenade
!!!ODT: 1909///
**kern	**kern	**dynam
*staff2	*staff1	*staff1/2
*Ipiano	*Ipiano	*Ipiano
*>[I,A,A1,A,A2,B,B1,B,B2,C,D,D1,D,D2,E,E1,E,E2]	*>[I,A,A1,A,A2,B,B1,B,B2,C,D,D1,D,D2,E,E1,E,E2]	*>[I,A,A1,A,A2,B,B1,B,B2,C,D,D1,D,D2,E,E1,E,E2]
*>I	*>I	*>I
*clefG2	*clefG2	*clefG2
*k[]	*k[]	*k[]
*M2/4	*M2/4	*M2/4
*MM90	*MM90	*MM90
=1-	=1-	=1-
(8.c/L	(8.cc\L	.
16d/Jk)	16dd\Jk)	.
(16e/LL	(16ee\LL	.
16d#/J	16dd#\J	.
8e/J)	8ee\J)	.
=2	=2	=2
(8.g/L	(8.gg\L	.
16a/Jk)	16aa\Jk)	.
8g/L	8gg\L	.
(16a/L	(16aa\L	.
16b/JJ)	16bb\JJ)	.
=3	=3	=3
(8.cc/L	(8.ccc\L	.
16d#/Jk)	16dd#\Jk)	.
(16e/LL	(16ee\LL	.
16G#/J	16g#\J	.
8A/J)	8a\J)	.
*clefF4	*	*
=4	=4	=4
(8F\	(8a/	.
4E\)	4g/)	.
(16E\LL	8cc\	.
16E-\JJ)	.	.
=5!|:	=5!|:	=5!|:
*>A	*>A	*>A
*^	*	*
8.D/L	[4.D\	(16b/LL	mf
.	.	16b-/	.
.	.	16a/	.
16G/Jk	.	[16g/JJ	.
8B/ 8f/L	.	16g/LL]	.
.	.	16g#/	.
8D/J]	8D\	16a/	.
.	.	16a#/JJ)	.
=6	=6	=6	=6
(8.GG/L	4.GG\	(16b\LL	.
.	.	16dd\ 16ff\	.
.	.	16cc#\ 16gg\	.
16G/Jk	.	[16dd\ [16ff\JJ	.
8B/ 8f/L	.	16dd\] 16ff\LL]	.
.	.	16cc#\ 16gg\	.
8D#/J)	8D#\	16dd\ 16ff\	.
.	.	16b\JJ)	.
=7	=7	=7	=7
8.E/L	(4.E\	(16cc/LL	.
.	.	16b/	.
.	.	16a/	.
16G/Jk	.	[16g/JJ	.
8c/ 8e/L	.	16g/LL]	.
.	.	16g#/	.
8G/J)	8G\	16a/	.
.	.	16b/JJ)	.
=8	=8	=8	=8
(8.C/L	4.C\	(16cc\LL	.
.	.	16ee\ 16gg\	.
.	.	16dd#\ 16aa\	.
16G/Jk	.	[16ee\ [16gg\JJ	.
8c/ 8e/L	.	16ee\] 16gg\LL]	.
.	.	16dd#\ 16aa\	.
8E/J)	8E\	16ee\ 16gg\	.
.	.	16cc#\JJ)	.
=9	=9	=9	=9
8.F/L	4.F\	(16dd\LL	.
.	.	16ff\	.
.	.	16aa\	.
16A/Jk	.	[16ff\ [16ddd\JJ	.
8d/ 8f/L	.	16ff\] 16ddd\LL])	.
.	.	(16ff\	.
8A/J	&(8A\&)	16ee\	.
.	.	[16dd\JJ	.
*v	*v	*	*
=10	=10	=10
8F\L	16dd/LK])	.
.	8c/ 8d/ 8a-/	.
8F\J	.	.
.	([16B/ [16d/ [16g/Jk	.
(16D\LL	8B/] 8d/] 8g/L]	.
16E\J	.	.
8F\J)	8dd/J)	.
=11	=11	=11
*^	*	*
8.E/L	4.E\	(16cc\LL	.
.	.	16ee\	.
.	.	16gg\	.
16G/Jk	.	[16ee\ [16ccc\JJ	.
8c/ 8e/L	.	16ee\] 16ccc\LL])	.
.	.	(16ee\	.
&(8G/J&)	8G\	16dd\	.
.	.	[16cc\JJ	.
*v	*v	*	*
=12	=12	=12
(8D#\L	16cc/LK])	.
.	8c/ 8f#/	.
8E\J)	.	.
.	([16c/ [16e/ [16g/Jk	.
(16C\LL	8c/] 8e/] 8g/L]	.
16Dn\	.	.
16E\	8cc/J)	.
16E-\JJ)	.	.
=13	=13	=13
*^	*	*
(8.D/L	4.D\	(16b/LL	.
.	.	16b-/	.
.	.	16a/	.
16G/Jk	.	[16g/JJ	.
8B/ 8f/L	.	16g/LL]	.
.	.	16g#/	.
8D/J)	8D\	16a/	.
.	.	16a#/JJ)	.
=14	=14	=14	=14
(8.GG/L	4.GG\	(16b\LL	.
.	.	16dd\ 16ff\	.
.	.	16cc#\ 16gg\	.
16G/Jk	.	[16dd\ [16ff\JJ	.
8B/ 8f/L	.	16dd\] 16ff\LL]	.
.	.	16cc#\ 16gg\	.
8D#/J)	8D#\	16dd\ 16ff\	.
.	.	16b\JJ)	.
=15	=15	=15	=15
(8.E/L	4.E\	(16cc/LL	.
.	.	16b/	.
.	.	16a/	.
16G/Jk	.	[16g/JJ	.
8c/ 8e/L	.	16g/LL]	.
.	.	16g#/	.
8G/J)	8G\	16a/	.
.	.	16b/JJ)	.
=16	=16	=16	=16
(8.C/L	4.C\	(16cc\LL	.
.	.	16ee\ 16gg\	.
.	.	16dd#\ 16aa\	.
16G/Jk	.	[16ee\ [16gg\JJ	.
8c/ 8e/L	.	16ee\] 16gg\LL]	.
.	.	16dd#\ 16aa\	.
8E/J)	8E\	16ee\ 16gg\	.
.	.	16b-\JJ)	.
=17	=17	=17	=17
(8.F/L	4.F\	16a\LK	.
.	.	8ff\ 8aa\	.
16A/Jk	.	[16cc\ [16ff\ [16aa\ ([16ccc\Jk	.
8c/ 8f/L	.	16cc\] 16ff\] 16aa\] 16ccc\LL]	<
.	.	16b\ 16bb\	.
8A/J)	8A\	16cc\ 16ccc\	.
.	.	16dd\ 16ddd\JJ)	.
*v	*v	*	*
=18	=18	=18
(4f#\	4dd#\ [4aa\ 4ccc\ (4ddd#\	.
4fn\)	8ddn\ 8aa\] 8ccc\ 8dddn\L	.
.	8a-\ 8cc\ 8ff\ 8aa-\J)	.
=19	=19	=19
*^	*	*
4r	16r	[4g\ [4cc\ [4ee\ [4gg\	.
.	(16E\LL	.	.
.	16F\	.	.
.	16F#\JJ	.	.
16G/LK	8G\L	16g\] 16cc\] 16ee\] 16gg\LK]	.
8.B/J)	.	8dd\ 8ff\ (8ddd\	.
.	8GG\J	.	.
.	.	16ee\ 16gg\ 16eee\Jk)	.
*v	*v	*	*
=20	=20	=20
*>A1	*>A1	*>A1
16C\ (16c\LL	4cc\ 4ee\ 4ccc\	.
16E\	.	.
16F\	.	.
16F#\JJ	.	.
16G\LL	(16ee\LL	.
16Fn\	16dd\J	.
16E\	8cc\J)	.
16E-\JJ)	.	.
=21:|!	=21:|!	=21:|!
*>A2	*>A2	*>A2
8C\ 8c\	8cc\ 8ee\ 8ccc\L	.
8r	(16ee\L	<
.	16ff\JJ)	.
8r	8ee\ 8gg\L	.
8C\ 8B-\	8ee\ 8gg#\J	.
=22!|:	=22!|:	=22!|:
*>B	*>B	*>B
*^	*^	*
.	(CCq\LL	.	.	.
.	DDq\	.	.	.
.	EEq\JJ	.	.	.
8.FF/L	4.FF\)	4r	8ff\ 8aa\L	f
.	.	.	(32cc\LL	.
.	.	.	32dd\	.
16A/Jk	.	.	32ee\	.
.	.	.	32ff\JJJ	.
8c/ 8f/L	.	16gg/LK	8.a\L	.
.	.	8ff/)	.	.
8FF/J	8FF\	.	.	.
.	.	48ff/LL	16a-\Jk	.
.	.	48gg/	.	.
.	.	48ff/JJJ	.	.
*	*	*v	*v	*
=23	=23	=23	=23
.	(GGq\LL	.	.
.	AAq\	.	.
.	BBq\JJ	.	.
8.C/L)	4.C\	16a-\ 16ff\LL	>
.	.	16g\ 16ee\	.
.	.	16g\ 16ee\	.
16A/Jk	.	[16f\ [16cc\ [16dd#\JJ	.
8c/ 8d#/L	.	8f/] 8cc/] 8dd#/L]	.
8A-/J	8A-\	8fn/ 8b/ 8ddn/J	.
*v	*v	*	*
=24	=24	=24
(Eq\LL	.	.
Fq\	.	.
Fq\JJ	.	.
8.G\L)	(4e/ 4a#/ 4cc#/	mp
(16G\Jk	.	.
8GG/L)	8f/) 8b/ 8dd/L	.
8GG#/J	8e/ 8b/ 8ee/J	.
=25	=25	=25
*^	*	*
8.AA/L	(4.AA\	8e\ 8an\ 8ccn\ 8ee\L	.
.	.	(16ee\L	<
16A/Jk	.	16ff\JJ)	.
8c/ 8e/L	.	8ee\ 8gg\L	.
8B-/J	8C\)	8ee\ 8gg#\J	.
=26	=26	=26	=26
*	*	*^	*
.	(CCq\LL	.	.	.
.	DDq\	.	.	.
.	EEq\JJ	.	.	.
8.FF/L	4.FF\)	4r	8ff\ 8aa\L	f
.	.	.	(32cc\LL	.
.	.	.	32dd\	.
16A/Jk	.	.	32ee\	.
.	.	.	32ff\JJJ	.
8c/ 8f/L	.	16gg/LK	8.a\L	.
.	.	8ff/)	.	.
8FF/J	8FF\	.	.	.
.	.	48ff/LL	16a-\Jk	.
.	.	48gg/	.	.
.	.	48ff/JJJ	.	.
*	*	*v	*v	*
=27	=27	=27	=27
8.C/L	(GGq\LL	.	.
.	AAq\	.	.
.	BBq\JJ	.	.
8.C/L	4.C\)	16a-\ 16ff\LL	.
.	.	16g\ 16ee\	.
.	.	16g\ 16ee\	.
16G/Jk	.	16g\ 16cc\ [16ee\JJ	.
8c/ 8e/L	.	8g\ 8cc\ 8ee\L]	.
8C#/J	&(8C#\&)	8g\ 8b-\ 8ee\J	.
=28	=28	=28	=28
*	*	*^	*
8.D/L	4.D\	(16ee/LL	8.g\ 8.b\L	.
.	.	16dd/	.	.
.	.	16ee/	.	.
16G/Jk	.	16b/JJ	16g\Jk	.
8B/ 8d/L	.	16b/LL	8g\L	.
.	.	16dd/J	.	.
8D/J	8D\	8a/J)	8c\ 8f#\J	.
=29	=29	=29	=29	=29
8.GG/L	4.GG\	(8a/	4B\ 4f\	.
.	.	4g/)	.	.
16G/Jk	.	.	.	.
8B/ 8f/L	.	.	4r	.
8GG/J	8GG\	8b\ 8dd\ 8gg\	.	.
=30	=30	=30	=30	=30
8.D/L	4.D\	16gg/LK	4a\ 4dd\	.
.	.	8ff/	.	.
16G/Jk	.	16ee/Jk	.	.
8A/ 8d/L	.	4r	16f\ 16dd\ (16ff\LL	.
.	.	.	16g\ 16ee\ 16gg\	.
8D/J	8D\	.	16a\ 16ff\ 16aa\	.
.	.	.	16a\ 16ff\ 16aan\JJ)	.
*	*	*v	*v	*
=31	=31	=31	=31
8.GG#/L	4.GG#\	4.b\ 4.dd\ 4.ff\ 4.bb\	.
16G#/Jk	.	.	.
8B/ 8d/ 8f/L	.	.	.
8Gn/J	8GGn\	8b\ 8dd\ 8gg\	.
=32	=32	=32	=32
*	*	*^	*
8.D/L	4.D\	(16gg/LK	4a\ 4dd\	.
.	.	8ff/)	.	.
16G/Jk	.	16ee/Jk	.	.
8A/ 8d/L	.	4r	16f\ 16dd\ (16ff\LL	.
.	.	.	16g\ 16ee\ 16gg\	.
8D/J	8D\	.	16a\ 16ff\ 16aa\	.
.	.	.	16a\ 16ff\ 16aan\JJ)	.
*	*	*v	*v	*
=33	=33	=33	=33
8.GG#/L	4.GG#\	4.b\ 4.dd\ 4.ff\ 4.bb\	.
16G#/Jk	.	.	.
8B/ 8d/ 8f/L	.	.	.
8GG#/J	8GG#\	8b\ 8dd\ 8ff\ 8bb\	.
=34	=34	=34	=34
8.AA/L	4.AA\	[4cc\ [4ee\ [4ccc\	.
16A/Jk	.	.	.
8c/ 8e/L	.	16cc\] 16ee\] 16ccc\LL]	.
.	.	16cc\ (16ccc\	.
8AA/J	8AA\	16dd\ 16ddd\	.
.	.	16ee\ 16eee\JJ)	.
=35	=35	=35	=35
8.FF/L	4.FF\	8ee\ 8aa\ (8eee\	.
.	.	4dd\ 4aa\ 4ddd\)	.
16A/Jk	.	.	.
8d/ 8f/L	.	.	.
8A-/J	8AA-\	8f\ 8cc\ 8dd\ 8ff\	mp
=36	=36	=36	=36
8.G/L	4.GG\	8f\ 8b\ 8dd\ 8ff\L	.
.	.	[8g\ [8b\ [8dd\ [8gg\J	.
16G/Jk	.	.	.
8B/ 8f/L	.	16g\] 16b\] 16dd\] 16gg\LL]	.
.	.	(16g\J	.
8G/J	8GG\	8f\ 8b\ 8ee\J)	.
*v	*v	*	*
=37	=37	=37
*>B1	*>B1	*>B1
8C\ 8G\	8e\ 8cc\L	.
8r	(16ee\L	<
.	16ff\JJ)	.
8r	8ee\ 8gg\L	.
8C\ 8B-\	8ee\ 8gg#\J	.
=38:|!	=38:|!	=38:|!
*>B2	*>B2	*>B2
16C\ 16G\LL	4e/ 4cc/	.
(16E\	.	.
16F\	.	.
16F#\JJ	.	.
16G\LL	(16ee\LL	.
16Fn\	16dd\J	.
16E\	8cc\J)	.
16E-\JJ)	.	.
=39	=39	=39
*>C	*>C	*>C
*^	*	*
(8.D/L	4.D\	(16b/LL	mf
.	.	16b-/	.
.	.	16a/	.
16G/Jk	.	[16g/JJ	.
8B/ 8f/L	.	16g/LL]	.
.	.	16g#/	.
8D/J)	8D\	16a/	.
.	.	16a#/JJ)	.
=40	=40	=40	=40
(8.GG/L	4.GG\	(16b\LL	.
.	.	16dd\ 16ff\	.
.	.	16cc#\ 16gg\	.
16G/Jk	.	[16dd\ [16ff\JJ	.
8B/ 8f/L	.	16dd\] 16ff\LL]	.
.	.	16cc#\ 16gg\	.
8D#/J	8D#\)	16dd\ 16ff\	.
.	.	16b\JJ)	.
=41	=41	=41	=41
8.E/L	(4.E\	(16cc/LL	.
.	.	16b/	.
.	.	16a/	.
16G/Jk	.	[16g/JJ	.
8c/ 8e/L	.	16g/LL]	.
.	.	16g#/	.
8G/J)	8G\	16a/	.
.	.	16b/JJ)	.
=42	=42	=42	=42
(8.C/L	4.C\	(16cc\LL	.
.	.	16ee\ 16gg\	.
.	.	16dd#\ 16aa\	.
16G/Jk	.	[16ee\ [16gg\JJ	.
8c/ 8e/L	.	16ee\] 16gg\LL]	.
.	.	16dd#\ 16aa\	.
8E/J	8E\)	16ee\ 16gg\	.
.	.	16cc#\JJ)	.
=43	=43	=43	=43
8.F/L	4.F\	(16dd\LL	.
.	.	16ff\	.
.	.	16aa\	.
16A/Jk	.	[16ff\ [16ddd\JJ	.
8d/ 8f/L	.	16ff\] 16ddd\LL])	.
.	.	(16ff\	.
8A/J	&(8A\&)	16ee\	.
.	.	[16dd\JJ	.
*v	*v	*	*
=44	=44	=44
8F\L	16dd/LK])	.
.	8c/ 8d/ 8a-/	.
8F\J	.	.
.	([16B/ [16d/ [16g/Jk	.
(16D\LL	8B/] 8d/] 8g/L]	.
16E\J	.	.
8F\J)	8dd/J)	.
=45	=45	=45
*^	*	*
8.E/L	4.E\	(16cc\LL	.
.	.	16ee\	.
.	.	16gg\	.
16G/Jk	.	[16ee\ [16ccc\JJ	.
8c/ 8e/L	.	16ee\] 16ccc\LL])	.
.	.	(16ee\	.
&(8G/J&)	8G\	16dd\	.
.	.	[16cc\JJ	.
*v	*v	*	*
=46	=46	=46
(8D#\L	16cc/LK])	.
.	8c/ 8f#/	.
8E\J)	.	.
.	([16c/ [16e/ [16g/Jk	.
(16C\LL	8c/] 8e/] 8g/L]	.
16Dn\	.	.
16E\	8cc/J)	.
16E-\JJ)	.	.
=47	=47	=47
*^	*	*
(8.D/L	4.D\	(16b/LL	.
.	.	16b-/	.
.	.	16a/	.
16G/Jk	.	[16g/JJ	.
8B/ 8f/L	.	16g/LL]	.
.	.	16g#/	.
8D/J)	8D\	16a/	.
.	.	16a#/JJ)	.
=48	=48	=48	=48
(8.GG/L	4.GG\	(16b\LL	.
.	.	16dd\ 16ff\	.
.	.	16cc#\ 16gg\	.
16G/Jk	.	[16dd\ [16ff\JJ	.
8B/ 8f/L	.	16dd\] 16ff\LL]	.
.	.	16cc#\ 16gg\	.
8D#/J)	8D#\	16dd\ 16ff\	.
.	.	16b\JJ)	.
=49	=49	=49	=49
(8.E/L	4.E\	(16cc/LL	.
.	.	16b/	.
.	.	16a/	.
16G/Jk	.	[16g/JJ	.
8c/ 8e/L	.	16g/LL]	.
.	.	16g#/	.
8G/J)	8G\	16a/	.
.	.	16b/JJ)	.
=50	=50	=50	=50
(8.C/L	4.C\	(16cc\LL	.
.	.	16ee\ 16gg\	.
.	.	16dd#\ 16aa\	.
16G/Jk	.	[16ee\ [16gg\JJ	.
8c/ 8e/L	.	16ee\] 16gg\LL]	.
.	.	16dd#\ 16aa\	.
8E/J)	8E\	16ee\ 16gg\	.
.	.	16b-\JJ)	.
=51	=51	=51	=51
8.F/L	(4.F\	16a\LK	.
.	.	8ff\ 8aa\	.
16A/Jk	.	[16cc\ [16ff\ [16aa\ [16ccc\Jk	.
8c/ 8f/L	.	16cc\] 16ff\] 16aa\] 16ccc\LL]	<
.	.	16b\ 16bb\	.
8A/J)	8A\	16cc\ 16ccc\	.
.	.	16dd\ 16ddd\JJ	.
*v	*v	*	*
=52	=52	=52
(4f#\	4dd#\ [4aa\ 4ccc\ (4ddd#\	.
4fn\)	8ddn\ 8aa\] 8ccc\ 8dddn\L	.
.	8a-\ 8cc\ 8ff\ 8aa-\J)	.
=53	=53	=53
*^	*	*
4r	16r	[4g\ [4cc\ [4ee\ [4gg\	.
.	(16E\LL	.	.
.	16F\	.	.
.	16F#\JJ	.	.
16G/LK	8G\L	16g\] 16cc\] 16ee\] 16gg\LK]	.
8.B/J)	.	8dd\ 8ff\ (8ddd\	.
.	8GG\J	.	.
.	.	16ee\ 16gg\ 16eee\Jk)	.
*v	*v	*	*
=54	=54	=54
8C\ 8c\L	[4cc\ [4ee\ [4ccc\	.
16G\L	.	.
[16C\JJ	.	.
8C/L]	8cc\] 8ee\] 8ccc\L]	>
8C/J	8B-\ 8e\J	.
=55	=55	=55
*>D	*>D	*>D
*k[b-]	*k[b-]	*k[b-]
*	*^	*
(16F\LL	([4f/	16A\LL	mp
16G\	.	16B-\	.
16G#\	.	16Bn\	.
[16A\JJ	.	[16c\JJ	.
16A\LL]	16c/] 16f/LL]	4r	.
16F\	16a/J	.	.
16D\	8a/ 8dd/ 8ff/J)	.	.
16C\JJ)	.	.	.
=56	=56	=56	=56
*^	*	*	*
16BB-/LL	(4.BB-\	4r	8.g\ 8.dd\ 8.ff\L	.
16B-/	.	.	.	.
16c/	.	.	.	.
[16d/JJ	.	.	[16g\ [16b-\Jk	.
8d/L])	.	16b-/LL]	8g\L]	.
.	.	16b-/J	.	.
8BB-/J	8BB-\	8dd/ 8ff/J	8g\J	.
=57	=57	=57	=57	=57
(16C/LL	4.C\	4r	8.g\ 8.dd\ 8.ff\L	.
16G/	.	.	.	.
16A/	.	.	.	.
[16B-/JJ	.	.	16g\ 16cc\ [16ee\Jk	.
8B-/L])	.	16ee/LL]	8g\ 8cc\L	.
.	.	16dd#/J	.	.
8CC/J	8CC\	8ee/J	8g\ 8b-\J	.
*	*	*v	*v	*
=58	=58	=58	=58
16FF/LL	4.FF\	8.f/ 8.a/ 8.ee/L	.
16G#/	.	.	.
16A/	.	.	.
[16c/JJ	.	[16f/ [16a/Jk	.
8c/L]	.	8f/] 8a/L]	.
8C;/J	8C;\	8B-;/ 8e;/J	.
*v	*v	*	*
=59	=59	=59
*	*^	*
(16F\LL	([4f/	16A\LL	.
16G\	.	16B-\	.
16G#\	.	16Bn\	.
[16A\JJ	.	[16c\JJ	.
8A\L]	16f/LL]	8c\L]	<
.	16a/	.	.
8F\J)	16cc/	&(8a\J&)	.
.	16dd/JJ)	.	.
=60	=60	=60	=60
*^	*	*	*
16r	([4E\	[4ee/	16r	mf
16e/LL	.	.	16cc\LL	.
16d/	.	.	16bn\	.
[16c/JJ	.	.	[16a\JJ	.
&(4c/]&)	16E\LL]	16ee/LL]	8a\L]	.
.	16A\	16dd#/J	.	.
.	16E\	8ee/J	8e\ 8a\ 8cc\J	.
.	16C\JJ)	.	.	.
=61	=61	=61	=61	=61
16r	4.EE\	([4ee/	16e\LL	.
(16d/LL	.	.	16bn\	.
16c/	.	.	16a\	.
[16Bn/JJ	.	.	16g#\JJ	.
8B/L])	.	16ee/LL]	&(8g#\L&)	.
.	.	16dd#/J)	.	.
8B/J	8E\	8ee/J	8e\ 8g#\J	.
*	*	*v	*v	*
=62	=62	=62	=62
[4c/	8A\L	[4e/ [4a/ [4ee/	.
.	16E\L	.	.
.	[16AA\JJ	.	.
8c/L]	8AA\L]	8e/] 8a/] 8ee/L]	.
8C;/J	8C;\J	8B-;/ 8e;/J	mp
*v	*v	*	*
=63	=63	=63
*	*^	*
(16F\LL	([4f/	16A\LL	.
16G\	.	16B-\	.
16G#\	.	16Bn\	.
[16A\JJ	.	[16c\JJ	.
16A\LL]	&(16c/]&) 16f/LL]	4r	.
16F\	16a/J	.	.
16D\	8a/ 8dd/ 8ff/J)	.	.
16C\JJ)	.	.	.
=64	=64	=64	=64
*^	*	*	*
16BB-/LL	(4.BB-\	4r	8.g\ 8.dd\ 8.ff\L	.
16B-/	.	.	.	.
16c/	.	.	.	.
[16d/JJ	.	.	[16g\ [16b-\Jk	.
8d/L])	.	16b-/LL]	8g\L]	.
.	.	16b-/J	.	.
8BB-/J	8BB-\	8dd/ 8ff/J	8g\J	.
=65	=65	=65	=65	=65
(16C/LL	4.C\	4r	8.g\ 8.dd\ 8.ff\L	.
16G/	.	.	.	.
16A/	.	.	.	.
[16B-/JJ	.	.	[16g\ 16cc\ [16ee\Jk	.
8B-/L])	.	16ee/LL]	8g\] 8cc\L	.
.	.	16dd#/J	.	.
8CC/J	8CC\	8ee/J	8g\ 8b-\J	.
*	*	*v	*v	*
=66	=66	=66	=66
(16FF/LL	4.FF\	8.f/ 8.a/ 8.ee/L	.
16G#/	.	.	.
16A/	.	.	.
[16c/JJ	.	[16f/ [16a/Jk	.
&(8c/L]&)	.	8f/] 8a/L]	.
8E-/J)	8E-\	8f/ 8a/J	.
*v	*v	*	*
=67	=67	=67
*	*^	*
(16D\LL	8.f/ 8.b-/L	4r	.
16F\	.	.	.
16B-\	.	.	.
[16d\JJ	[16f/ ([16b-/Jk	.	.
8d\L]	16b-/LL]	8f\L]	.
.	16cc/J	.	.
8d-\J)	8b-/J)	8f\J	.
*	*v	*v	*
=68	=68	=68
16c\LK	16f/ 16a/LK	.
8c\	8f/ 8a/	.
[16Bn\Jk	[16f/ [16g#/Jk	.
8B\L]	8f/] 8g#/L]	.
8B\J	8f/ 8g#/ 8dd/J	.
=69	=69	=69
*	*^	*
8.c\L	16dd/LK	8.f\ 8.a\L	.
.	8cc/	.	.
[16C\Jk	16b-/Jk	[16d\ 16e\Jk	.
4C/]	8d/] 8e/ 8b-/L	4r	.
.	8c/ 8e/ 8a/J	.	.
*	*v	*v	*
=70	=70	=70
*>D1	*>D1	*>D1
(8.F/L	4.A/ 4.f/	.
16C/k	.	.
8FF/J)	.	.
8C;/	8B-;/ 8e;/	.
=71:|!	=71:|!	=71:|!
*>D2	*>D2	*>D2
(8.F/L	[4A/ [4f/	.
16C/k	.	.
8FF/J)	8A/] 8f/L]	.
8AA-;/	(16dd;/L	.
.	16ff/JJ)	.
=72!|:	=72!|:	=72!|:
*>E	*>E	*>E
*^	*	*
8.GG/L	4.GG\	16ff\ 16bb-\LL	f
.	.	16ee\ 16bb-\	.
.	.	16dd#\ 16bb-\	.
16G/Jk	.	[16ee\ [16bb-\JJ	.
8B-/ 8c/ 8e/L	.	16ee\] 16bb-\LK]	.
.	.	8dd#\ 8bb-\	.
8CC/J	8CC\	.	.
.	.	16ee\ 16bb-\Jk	.
=73	=73	=73	=73
8.GG/L	4.GG\	16ff\ 16bb-\LL	.
.	.	16ee\ 16bb-\	.
.	.	16dd#\ 16bb-\	.
16G/Jk	.	[16ee\ [16bb-\JJ	.
8B-/ 8c/ 8e/L	.	16ee\] 16bb-\LK]	.
.	.	8dd#\ 8bb-\	.
8CC/J	8CC\	.	.
.	.	16ee\ 16bb-\Jk	.
=74	=74	=74	=74
8.FF/L	4.FF\	16ee\ 16aa\LL	.
.	.	16dd\ 16aa\	.
.	.	16cc#\ 16aa\	.
16A/Jk	.	[16dd\ [16aa\JJ	.
8c/ 8f/L	.	4dd\_ 4aa\_	.
8CC/J	8CC\	.	.
=75	=75	=75	=75
(16FF/LL	4.FF\	4dd\_ 4aa\_	.
16A-/	.	.	.
16An/	.	.	.
[16d/JJ	.	.	.
4d/]	.	16dd\] 16aa\LK]	.
.	.	8a\ 8dd\	.
.	8FF#\)	.	.
.	.	16a\ 16cc\Jk	.
=76	=76	=76	=76
8.GG/L	4.GG\	(16a/ 16cc/LL	p
.	.	16g/ 16b-/	.
.	.	16f#/ 16a/	.
16G/Jk	.	16g/ 16b-/JJ	.
8B-/ 8c/ 8e/L	.	16g/) 16b-/LK	.
.	.	8f#/ 8a/	.
8CC/J	8CC\	.	.
.	.	16g/ 16b-/Jk	.
=77	=77	=77	=77
8.EE/L	4.EE\	(16a/ 16cc/LL	.
.	.	16g/ 16b-/	.
.	.	16f#/ 16a/	.
16G/Jk	.	[16g/ 16b-/JJ	.
8B-/ 8c/ 8e/L	.	16g/]) 16b-/LK	.
.	.	8f#/ 8a/	.
8CC/J	8CC\	.	.
.	.	16g/ 16b-/Jk	.
=78	=78	=78	=78
8.FF/L	4.FF\	16g/ 16b-/LL	.
.	.	16f/ 16a/	.
.	.	16g/ 16b-/	.
16A/Jk	.	[16a/ [16cc/JJ	.
8c/ 8f/L	.	4a\_ 4cc\_	.
8CC/J	8CC\	.	.
=79	=79	=79	=79
16FF/LL	(4.FF\	4a\_ 4cc\_	.
16G#/	.	.	.
16A/	.	.	.
[16c/JJ	.	.	.
8c/L])	.	8a\] 8cc\L]	.
8AA-;/J	&(8AA-;\&)	(16dd\L	.
.	.	16ff\JJ)	.
=80	=80	=80	=80
8.GG/L	4.GG\	16ff\ 16bb-\LL	f
.	.	16ee\ 16bb-\	.
.	.	16dd#\ 16bb-\	.
16G/Jk	.	[16ee\ [16bb-\JJ	.
8B-/ 8c/ 8e/L	.	16ee\] 16bb-\LK]	.
.	.	8dd#\ 8bb-\	.
8CC/J	8CC\	.	.
.	.	16ee\ 16bb-\Jk	.
=81	=81	=81	=81
8.GG/L	4.GG\	16ff\ 16bb-\LL	.
.	.	16ee\ 16bb-\	.
.	.	16dd#\ 16bb-\	.
16G/Jk	.	[16ee\ [16bb-\JJ	.
8B-/ 8c/ 8e/L	.	16ee\] 16bb-\LK]	.
.	.	8dd#\ 8bb-\	.
8CC/J	8CC\	.	.
.	.	16ee\ 16bb-\Jk	.
=82	=82	=82	=82
8.FF/L	4.FF\	16ee\ 16aa\LL	.
.	.	16dd\ 16aa\	.
.	.	16cc#\ 16aa\	.
16A/Jk	.	[16dd\ [16aa\JJ	.
8c/ 8f/L	.	4dd\_ 4aa\_	.
8CC/J	8CC\	.	.
=83	=83	=83	=83
*	*	*^	*
(16FF/LL	4.FF\	4r	4dd\_ 4aa\_	.
16G#/	.	.	.	.
16A/	.	.	.	.
[16d/JJ	.	.	.	.
8d/L]	.	16aa/LL]	16dd\LK]	.
.	.	16aa/	8.cc\J	.
8f/J	8A\)	16ff/	.	.
.	.	16ee-/JJ	.	.
*v	*v	*	*	*
=84	=84	=84	=84
8.B-\ 8.f\L	(16dd/LL	8.b-\L	.
.	16ff/	.	.
.	16dd/	.	.
[16Bn\ [16f\Jk	[16ff/JJ	[16g#\Jk	.
8B\] 8f\L]	16ff/LK])	16g#\LK]	.
.	(8ff/	8.g#\J	.
8B\ 8f\J	.	.	.
.	16dd/Jk)	.	.
=85	=85	=85	=85
*^	*	*	*
4r	8.c\ 8.f\L	(16dd/LL	8.a\L	.
.	.	16ff/	.	.
.	.	16dd/	.	.
.	[16e-\ [16f\Jk	[16cc/JJ	[16a\Jk	.
16e-/LK]	16f\LK]	16cc/LK])	16a\LK]	.
8.f/J	(8d\	8ff/	8.b-\J	.
.	16d-\Jk)	16gg/Jk	.	.
=86	=86	=86	=86	=86
4r	8.c\ 8.f\L	4r	16cc\ (16aa\LL	.
.	.	.	16bn\ 16gg#\	.
.	.	.	16cc\ 16aa\	.
.	[16c\ [16f\Jk	.	[16a\ [16cc\JJ	.
16f/LK]	16c\LK]	16cc/LK])	16a\LK]	.
8c/	8.C\J	(8a/	8.e\J	.
16B-/Jk	.	16g/Jk)	.	.
*	*	*v	*v	*
=87	=87	=87	=87
*v	*v	*	*
*>E1	*>E1	*>E1
*^	*	*
4.A/	8.F\L	4.f/	.
.	16C\k	.	.
.	8FF\J	.	.
8r	8AA-;\	(16dd;\LL	.
.	.	16ff\JJ)	.
=88:|!	=88:|!	=88:|!	=88:|!
*v	*v	*	*
*>E2	*>E2	*>E2
*^	*	*
4.A/	8.F\L	4f/	.
.	16C\k	.	.
.	8FF\J	8f\ 8a\ 8cc\ 8ff\	.
8r	8r	8r	.
*v	*v	*	*
==	==	==
*-	*-	*-
!!!ENC: Craig Stuart Sapp
!!!END: 2004/11/28/
